X: 7
M: 6/8
L: 1/8
K: Dmix
|: GEE cEE | GAG G2A | GEE cBc | ded dcA |\
g3 ged | cAB cde | g3 ged | eaa age |\
gea ged | cAB cde | fed cAG | Add def |
g3 ged | cAB cde | g3 ged | eaa age |\
gea ged | cAB cde | fed cAG | Add dcA :|


